!! 00000] TT[WS
!!!OTL: Shier sheng
!!!ARE: Asia, China, Shanxi XieyÅ
!! Ethnic Group: Han
!! WI, 256
!!!SCT: J0303
!!!YEM: Copyright 1995, estate of Helmut Schaffrath.
**kern
*ICvox
*Ivox
*M2/4
*k[f#c#g#]
*A:
{8ee
8dd
4ee
=1
8r
4ff#
8ee
=2
4b
4ee
=3
8cc#
8b
4a}
=4
{8a
8b
4ee
=5
8cc#
8b
4a
=6
4b
8a
8f#
=7
2e}
=8
{8a
8ee
4a
=9
8r
4b
8ee
=10
4ee
4a
=11
8a
8f#
4e}
=12
{4a
4b
=13
8a
8f#
4e
=14
8a
8f#
4a
=15
8g#
8f#
4e}
==
!!!AGN: Xiaodiao. XÅshi
!!!ONB: ESAC (Essen Associative Code) Database: CHINA
!!!AMT: simple duple
!!!AIN: vox
!!!EED: Helmut Schaffrath
!!!EEV: 1.0
*-
